X:1
T:Title
%%score { ( 1 4 5 ) | ( 2 3 ) }
L:1/8
Q:1/4=92
M:6/8
K:Bb
V:1 treble nm="Grand Piano"
V:4 treble 
V:5 treble 
V:2 bass 
V:3 bass 
V:1
 [DF]>[DF][DF] [DF][FB]c | d2 c [DB]3 | G>GG [FB][EA][DB] | c2 d c3 | c>cc .[=Ec]2 [CEG] | %5
w: Chas.~H.~Gabriel * * * * *|||||
 A2 B c2 d | e>ee edc | d2 d d3 | f>ed dc[FB] | c2 B G3 | F>FF BAB | d2 c [DB]3 | %12
w: |||||||
 d->[Fd-][Fd-] [Fd]Fc | B->[DB-][EB-] [DB]3 | B>BB [FB][EA][DB] | c2 d c3 | .e6 | d6 | f>dc B2 B | %19
w: |||||||
 d2 c [DB]3 |] %20
w: |
V:2
 z3 .B,3[K:treble] | [B,F]2[K:bass] [F,A,E] [B,,B,]3 | [E,B,E]>[E,B,E][E,B,E] [D,B,][C,F,][B,,B,] | %3
 [F,A,F]2 [F,B,F] [F,A,F]3 | [F,A,F]>[F,A,F][F,A,F] z[K:treble] B[K:bass]C, | %5
 [F,CF]2 [F,B,F] [F,F]2- [F,B,F] | z3 .C3 | [B,F]2 [B,F] [B,F]3 | %8
 [B,DF]>[B,CF][B,F][K:bass] [B,,B,][C,A,][D,B,] | [E,G,E]2 [E,G,E] [E,B,E]3 | %10
 [F,B,D]>[F,B,D][F,D] [G,C=E]2 [G,CE] | [F,B,F]2 [F,A,E] [B,,B,]3 | z3 .B,3 | %13
 [B,,B,]>[B,,F,][B,,G,] [B,,F,]3 | [E,G,E]>[E,G,E][E,G,E] [D,B,][C,F,][B,,B,] | %15
 [F,A,F]2 [F,B,F] [F,A,F]3 | z3 .C3[K:treble] | [B,F]>B,B, B,2 [B,CF] | %18
 [B,DF]>[B,F][K:bass][F,A,E] [G,B,D]2 [G,B,=E] | [F,B,F]2 [F,A,E] [B,,B,]3 |] %20
V:3
 [B,,B,]>[B,,B,][B,,B,] B,,D,[K:treble][F,A,F] | x2[K:bass] x4 | x6 | x6 | %4
 z3 .[C,G,]3[K:treble][K:bass] | z3 .A,3 | [F,CF]>[F,CF][F,CF] [F,F]-[F,B,F][F,A,F] | x6 | %8
 x3[K:bass] x3 | x6 | x6 | x6 | [B,,B,]>[B,,B,][B,,B,] B,,D,[F,A,E] | x6 | x6 | x6 | %16
 [F,CF]>[F,C][F,C] F,-[F,B,][K:treble][F,A,F] | x6 | x2[K:bass] x4 | x6 |] %20
V:4
 x6 | x6 | x6 | x6 | x6 | x6 | x6 | x6 | z3 .F3 | x6 | x6 | x6 | .F3 z3 | .D3 z3 | x6 | x6 | %16
 z z/ F/F z dc | z z/ F/F F2 e | x6 | x6 |] %20
V:5
 x6 | x6 | x6 | x6 | x6 | x6 | x6 | x6 | x6 | x6 | x6 | x6 | x6 | x6 | x6 | x6 | z3 .F3 | x6 | x6 | %19
 x6 |] %20

